website/static/img/folder.svg

<svg fill="none" height="20" viewBox="0 0 20 20" width="20" xmlns="http://www.w3.org/2000/svg"><path d="m16.0938 6.25h-5.625l-1.87505-1.875h-4.6875c-.77666 0-1.40625.62959-1.40625 1.40625v8.43755c0 .7766.62959 1.4062 1.40625 1.4062h12.18755c.7766 0 1.4062-.6296 1.4062-1.4062v-6.56255c0-.77666-.6296-1.40625-1.4062-1.40625z" fill="#4b5563"/></svg>

<svg width="20" height="20" viewBox="0 0 20 20" fill="none" xmlns="http://www.w3.org/2000/svg">
<path d="M16.0938 6.25H10.4688L8.59375 4.375H3.90625C3.12959 4.375 2.5 5.00459 2.5 5.78125V14.2188C2.5 14.9954 3.12959 15.625 3.90625 15.625H16.0938C16.8704 15.625 17.5 14.9954 17.5 14.2188V7.65625C17.5 6.87959 16.8704 6.25 16.0938 6.25Z" fill="#4B5563"/>
</svg>
